app/assets/images/sephora_style_guide/svgs/order_status/delivery-attempted.svg

<svg version="1.1" xmlns="http://www.w3.org/2000/svg" viewBox="0 0 100 100">
<g id="Icons" stroke="none" stroke-width="1" fill="none" fill-rule="evenodd">
<g id="ordershippingicon_13" transform="translate(-1.000000, -7.000000)">
<g id="Group" transform="translate(1.000000, 3.000000)">
<g id="Group-3" transform="translate(0.000000, 29.926425)">
<mask id="mask-2" fill="white"><polygon id="path-1" points="0 1.30055 95 1.30055 95 56.99905 0 56.99905"></polygon></mask>
<g id="Clip-2"></g>
<path d="M77.400775,48.92405 C77.324775,49.12355 77.267775,49.32305 77.172775,49.51305 C76.365275,51.11855 74.721775,52.24905 72.774275,52.24905 C70.831525,52.24905 69.188025,51.11855 68.380525,49.51305 C68.285525,49.32305 68.223775,49.12355 68.152525,48.92405 C67.991025,48.43955 67.839025,47.94555 67.839025,47.4088 C67.839025,46.8768 67.991025,46.3923 68.147775,45.91255 C68.299775,45.5278 68.485025,45.16205 68.713025,44.82005 C69.591775,43.49005 71.045275,42.55905 72.774275,42.55905 C74.508025,42.55905 75.956775,43.49005 76.840275,44.82005 C77.068275,45.16205 77.253525,45.5278 77.405525,45.91255 C77.562275,46.3923 77.709525,46.8768 77.709525,47.4088 C77.709525,47.94555 77.562275,48.43955 77.400775,48.92405 M24.001275,48.92405 C23.925275,49.12355 23.863525,49.32305 23.773275,49.51305 C22.965775,51.11855 21.317525,52.24905 19.374775,52.24905 C17.432025,52.24905 15.783775,51.11855 14.976275,49.51305 C14.886025,49.32305 14.824275,49.12355 14.753025,48.92405 C14.586775,48.43955 14.439525,47.94555 14.439525,47.4088 C14.439525,46.8768 14.586775,46.3923 14.748275,45.91255 C14.900275,45.5278 15.085525,45.16205 15.313525,44.82005 C16.192275,43.49005 17.645775,42.55905 19.374775,42.55905 C21.103775,42.55905 22.557275,43.49005 23.440775,44.82005 C23.664025,45.16205 23.854025,45.5278 24.006025,45.91255 C24.162775,46.3923 24.310025,46.8768 24.310025,47.4088 C24.310025,47.94555 24.162775,48.43955 24.001275,48.92405 M94.994775,42.0223 L94.994775,32.7788 C94.994775,26.80805 91.209025,24.2383 91.209025,24.2383 C91.209025,24.2383 71.358775,8.32105 68.052775,5.04355 C64.742025,1.76605 59.075275,1.30055 59.075275,1.30055 L55.926025,1.30055 C55.873775,2.90605 55.712275,4.48305 55.417775,6.0078 L58.823525,6.0078 C60.020525,6.14555 63.117525,6.81055 64.689775,8.3638 C68.076525,11.7268 86.174025,26.2523 88.406525,28.03355 C88.591775,28.1808 90.244775,29.5678 90.244775,32.7788 L90.244775,42.0223 L90.244775,42.16955 L90.254275,42.3073 C90.263775,42.54005 90.154525,43.8083 89.632025,44.35455 C89.275775,44.7298 88.492025,44.81055 87.898275,44.81055 L82.055775,44.81055 C80.911025,40.7778 77.220275,37.80905 72.774275,37.80905 C68.347275,37.80905 64.642275,40.7778 63.492775,44.81055 L28.656275,44.81055 C27.506775,40.7778 23.816025,37.80905 19.374775,37.80905 C15.194775,37.80905 11.670275,40.44055 10.311775,44.1123 C7.960525,43.1813 4.749525,41.3478 4.749525,38.28405 L4.749525,20.88955 C2.887525,18.94205 1.282025,16.7618 -0.000475,14.3773 L-0.000475,38.28405 C-0.000475,44.86755 6.488025,47.86005 9.846275,48.97155 C10.601525,53.5268 14.563025,56.99905 19.374775,56.99905 C23.996525,56.99905 27.834525,53.79755 28.813025,49.5178 L63.340775,49.5178 C64.314525,53.79755 68.166775,56.99905 72.774275,56.99905 C77.400775,56.99905 81.243525,53.79755 82.212525,49.5178 L87.898275,49.5178 C95.460275,49.5178 94.994775,42.0223 94.994775,42.0223" id="Fill-1" fill="#020303" mask="url(#mask-2)"></path>
</g>
<g id="Group-6" transform="translate(0.000000, 1.426425)">
<mask id="mask-4" fill="white"><polygon id="path-3" points="0 3.328325 52.843275 3.328325 52.843275 56.167325 0 56.167325"></polygon></mask>
<g id="Clip-5"></g>
<path d="M30.090775,34.497825 C30.090775,36.526075 28.447275,38.164825 26.423775,38.164825 C24.395525,38.164825 22.752025,36.526075 22.752025,34.497825 L22.752025,13.422075 C22.752025,11.389075 24.395525,9.745575 26.423775,9.745575 C28.447275,9.745575 30.090775,11.389075 30.090775,13.422075 L30.090775,34.497825 Z M28.998275,48.686075 C28.333275,49.351075 27.383275,49.726325 26.428525,49.726325 C25.435775,49.726325 24.485775,49.351075 23.820775,48.686075 C23.155775,47.968825 22.728275,47.028325 22.728275,46.078325 C22.728275,45.123575 23.155775,44.173575 23.820775,43.465825 C25.198275,42.126325 27.616025,42.088325 28.998275,43.508575 C29.710775,44.121325 30.090775,45.076075 30.090775,46.078325 C30.090775,47.028325 29.710775,47.968825 28.998275,48.686075 Z M26.423775,3.328325 C11.827025,3.328325 -0.000475,15.160575 -0.000475,29.747825 C-0.000475,44.325575 11.827025,56.167325 26.423775,56.167325 C41.015775,56.167325 52.843275,44.325575 52.843275,29.747825 C52.843275,15.160575 41.015775,3.328325 26.423775,3.328325 Z" id="Fill-4" fill="#020303" mask="url(#mask-4)"></path></g></g></g></g>
</svg>

<svg xmlns="http://www.w3.org/2000/svg" viewBox="0 0 100 100"><g fill="none" fill-rule="evenodd"><g transform="translate(0 25.926)"><mask id="a" fill="#fff"><path d="M0 1.3h95V57H0z"/></mask><path d="M77.4 48.924c-.075.2-.132.4-.227.59-.808 1.605-2.451 2.735-4.399 2.735-1.942 0-3.586-1.13-4.393-2.736-.095-.19-.157-.39-.228-.589-.162-.484-.314-.978-.314-1.515 0-.532.152-1.017.309-1.496.152-.385.337-.75.565-1.093.879-1.33 2.332-2.261 4.061-2.261 1.734 0 3.183.931 4.066 2.261.228.342.414.708.566 1.093.156.48.304.964.304 1.496 0 .537-.148 1.03-.31 1.515m-53.399 0c-.076.2-.137.4-.228.59-.807 1.605-2.455 2.735-4.398 2.735-1.943 0-3.591-1.13-4.399-2.736-.09-.19-.152-.39-.223-.589-.166-.484-.313-.978-.313-1.515 0-.532.147-1.017.308-1.496.152-.385.338-.75.566-1.093.878-1.33 2.332-2.261 4.06-2.261 1.73 0 3.183.931 4.067 2.261.223.342.413.708.565 1.093.157.48.304.964.304 1.496 0 .537-.147 1.03-.309 1.515m70.994-6.902V32.78c0-5.971-3.786-8.54-3.786-8.54S71.359 8.32 68.053 5.043C64.742 1.766 59.075 1.3 59.075 1.3h-3.149a29.99 29.99 0 01-.508 4.707h3.406c1.197.138 4.294.803 5.866 2.356 3.387 3.363 21.484 17.888 23.717 19.67.185.147 1.838 1.534 1.838 4.745v9.391l.01.137c.009.233-.1 1.501-.623 2.048-.356.375-1.14.456-1.734.456h-5.842a9.627 9.627 0 00-9.282-7.002c-4.427 0-8.132 2.969-9.281 7.002H28.656a9.636 9.636 0 00-9.281-7.002 9.648 9.648 0 00-9.063 6.303c-2.351-.93-5.562-2.764-5.562-5.828V20.89A29.979 29.979 0 010 14.377v23.907c0 6.584 6.488 9.576 9.846 10.688.756 4.555 4.717 8.027 9.529 8.027a9.66 9.66 0 009.438-7.481h34.528c.974 4.28 4.826 7.481 9.433 7.481 4.627 0 8.47-3.201 9.439-7.481h5.685c7.562 0 7.097-7.496 7.097-7.496" fill="#020303" mask="url(#a)"/></g><g transform="translate(0 -2.574)"><mask id="b" fill="#fff"><path d="M0 3.328h52.843v52.84H0z"/></mask><path d="M30.09 34.498a3.666 3.666 0 01-3.666 3.667 3.667 3.667 0 01-3.672-3.667V13.422a3.672 3.672 0 013.672-3.676 3.671 3.671 0 013.667 3.676v21.076zm-1.092 14.188c-.665.665-1.615 1.04-2.57 1.04-.992 0-1.942-.375-2.607-1.04-.665-.717-1.093-1.658-1.093-2.608 0-.954.428-1.904 1.093-2.612 1.377-1.34 3.795-1.378 5.177.043.713.612 1.093 1.567 1.093 2.57 0 .95-.38 1.89-1.093 2.607zM26.424 3.328C11.827 3.328 0 15.161 0 29.748c0 14.578 11.827 26.42 26.424 26.42 14.592 0 26.42-11.842 26.42-26.42 0-14.587-11.828-26.42-26.42-26.42z" fill="#020303" mask="url(#b)"/></g></g></svg>
